X:27
T:Mr McLavid a Popular Dance
S:John Moore's Book 2
Z:Transcribed by Taz Tarry 04/2021
%%VWML: Moore1-4494-p25-0
F:http://www.vwml.org/record/Moore2/4494/p25
N:The anacrucis in the B part is a quaver beat too long in ms
M:C|
L:1/8
K:A
c|A2 a2 fefa|c2 cB c2 c>B|A2 a2 fefa|B2 BA B2 Bc|
A2 a2 fefa|c2 cB c2 ce|f>gfe f2 eg|a2 ec B3||
c2|AAcA ecce|c2 cB c2 a2|AAcA ecce|B2 BA B3 c|
AAcA ecca|c2 cB c2 ce|f2 fe f2 eg|a2 ec B3||

